assets/bank-tab/Asset/Savings Account.svg

<svg width="24" height="24" viewBox="0 0 24 24" fill="none" xmlns="http://www.w3.org/2000/svg">
<g clip-path="url(#clip0_5371_1106)">
<path d="M22.8068 10.5261L20.3503 7.84955C19.0078 6.37989 17.5657 5.00756 16.0342 3.72282L12.3744 0.647233C12.1456 0.452576 11.7975 0.452576 11.5688 0.6375L8.48581 3.09018C6.57635 4.61824 4.79617 6.2923 3.15523 8.09288L0.94741 10.5261C0.589385 10.9251 0.877794 11.5578 1.41483 11.5578C2.10104 11.5578 2.65797 12.1028 2.65797 12.7744V16.9303C2.65797 17.9133 3.34418 18.8185 4.32875 18.9742C5.59178 19.1786 6.6758 18.2248 6.6758 17.0374V12.7647C6.6758 12.0931 7.23273 11.548 7.91894 11.548H8.62505C9.31126 11.548 9.86819 12.0931 9.86819 12.7647V16.9206C9.86819 17.9036 10.5544 18.8088 11.539 18.9645C12.802 19.1689 13.886 18.2151 13.886 17.0276V12.7647C13.886 12.0931 14.4429 11.548 15.1292 11.548H15.6861C16.3723 11.548 16.9292 12.0931 16.9292 12.7647V16.9206C16.9292 17.9036 17.6154 18.8088 18.6 18.9645C19.863 19.1689 20.9471 18.2151 20.9471 17.0276V12.7647C20.9471 12.0931 21.504 11.548 22.1902 11.548H22.3394C22.8864 11.548 23.1748 10.9154 22.8068 10.5261ZM11.8771 7.67436C10.9522 7.67436 10.1964 6.93466 10.1964 6.02951C10.1964 5.12435 10.9522 4.38465 11.8771 4.38465C12.802 4.38465 13.5578 5.12435 13.5578 6.02951C13.5578 6.93466 12.802 7.67436 11.8771 7.67436Z" fill="#297034"/>
<path d="M22.0113 23.5H1.99173C1.01711 23.5 0.301061 22.5948 0.549689 21.68L0.728701 20.9987C0.897768 20.3563 1.49448 19.8988 2.17074 19.8988H21.8323C22.5085 19.8988 23.1052 20.3466 23.2743 20.9889L23.4533 21.6702C23.692 22.5948 22.9859 23.5 22.0113 23.5Z" fill="#297034"/>
</g>
<defs>
<clipPath id="clip0_5371_1106">
<rect width="24" height="24" fill="white"/>
</clipPath>
</defs>
</svg>

<svg xmlns="http://www.w3.org/2000/svg" width="24" height="24" fill="none" viewBox="0 0 24 24"><g fill="#297034" clip-path="url(#a)"><path d="M22.807 10.526 20.35 7.85a45 45 0 0 0-4.316-4.127L12.374.647a.64.64 0 0 0-.805-.01L8.486 3.09a47 47 0 0 0-5.33 5.003l-2.21 2.433a.62.62 0 0 0 .468 1.032c.686 0 1.243.545 1.243 1.216v4.156c0 .983.686 1.889 1.67 2.044 1.264.205 2.348-.75 2.348-1.937v-4.272c0-.672.557-1.217 1.243-1.217h.706c.686 0 1.243.545 1.243 1.217v4.156c0 .983.686 1.888 1.671 2.044 1.263.204 2.347-.75 2.347-1.937v-4.263c0-.672.557-1.217 1.243-1.217h.557c.686 0 1.243.545 1.243 1.217v4.156c0 .983.686 1.888 1.671 2.044 1.263.204 2.347-.75 2.347-1.937v-4.263c0-.672.557-1.217 1.243-1.217h.15c.546 0 .835-.633.467-1.022m-10.93-2.852c-.925 0-1.68-.74-1.68-1.644 0-.906.755-1.645 1.68-1.645s1.68.74 1.68 1.645-.755 1.644-1.68 1.644M22.011 23.5H1.991c-.974 0-1.69-.905-1.441-1.82l.179-.681c.169-.643.765-1.1 1.442-1.1h19.661c.677 0 1.273.448 1.442 1.09l.18.681c.238.925-.468 1.83-1.443 1.83"/></g><defs><clipPath id="a"><path fill="#fff" d="M0 0h24v24H0z"/></clipPath></defs></svg>
